Newaita-dark/.DP/32/kdeconnect-tray.svg

<svg xmlns="http://www.w3.org/2000/svg" xmlns:xlink="http://www.w3.org/1999/xlink" width="32px" height="32px" viewBox="0 0 32 32" version="1.1">
<g id="surface1">
<path style=" stroke:none;fill-rule:nonzero;fill:rgb(93.333334%,93.333334%,93.333334%);fill-opacity:1;" d="M 8.597656 4.21875 C 7.867188 4.21875 7.277344 4.808594 7.277344 5.542969 L 7.277344 26.710938 C 7.277344 27.441406 7.867188 28.035156 8.597656 28.035156 L 23.152344 28.035156 C 23.886719 28.035156 24.476562 27.441406 24.476562 26.710938 L 24.476562 5.542969 C 24.476562 4.808594 23.886719 4.21875 23.152344 4.21875 Z M 10.582031 6.863281 L 21.167969 6.863281 C 21.535156 6.863281 21.832031 7.160156 21.832031 7.527344 L 21.832031 22.742188 C 21.832031 23.109375 21.535156 23.402344 21.167969 23.402344 L 10.582031 23.402344 C 10.21875 23.402344 9.921875 23.109375 9.921875 22.742188 L 9.921875 7.527344 C 9.921875 7.160156 10.21875 6.863281 10.582031 6.863281 Z M 13.894531 24.726562 L 17.863281 24.726562 C 18.226562 24.726562 18.523438 25.019531 18.523438 25.386719 L 18.523438 26.050781 C 18.523438 26.417969 18.226562 26.710938 17.863281 26.710938 L 13.894531 26.710938 C 13.527344 26.710938 13.230469 26.417969 13.230469 26.050781 L 13.230469 25.386719 C 13.230469 25.019531 13.527344 24.726562 13.894531 24.726562 Z M 13.894531 24.726562 "/>
</g>
</svg>

<svg xmlns="http://www.w3.org/2000/svg" width="32pt" height="32pt" viewBox="0 0 32 32"><path d="M8.602 4.219a1.32 1.32 0 0 0-1.325 1.324v21.168c0 .734.59 1.324 1.325 1.324h14.55a1.32 1.32 0 0 0 1.325-1.324V5.543a1.32 1.32 0 0 0-1.325-1.324zm1.984 2.644h10.582c.367 0 .664.297.664.664v15.215a.66.66 0 0 1-.664.66H10.586a.66.66 0 0 1-.664-.66V7.527c0-.367.297-.664.664-.664zm3.305 17.864h3.968a.66.66 0 0 1 .664.66v.664c0 .363-.296.66-.664.66h-3.968a.662.662 0 0 1-.66-.66v-.664a.66.66 0 0 1 .66-.66zm0 0" fill="#bdbdbd"/></svg>
